X:377
T:Wheels of the World
Z: id:dc-reel-349
M:C
L:1/8
K:D Mixolydian
B|ADD2 FAGF|ECC2 G,CEG|ADD2 FAde|=fedc AddB|!
ADD2 FAGF|ECC2 G,CEG|AddB cBAG|EDCE EDD:|!
B|cBce gecA|d2ad bdad|cBcd edd2|eaa2 edAB|!
cBce gecA|d2ad bdad|abag efge|fage d3:|!

